images/3233074.svg

<?xml version="1.0" encoding="UTF-8"?>
<svg xmlns="http://www.w3.org/2000/svg" xmlns:xlink="http://www.w3.org/1999/xlink" width="300pt" height="300pt" viewBox="0 0 300 300" version="1.1">
<defs>
<g>
<symbol overflow="visible" id="glyph0-0">
<path style="stroke:none;" d="M 0.453125 1.59375 L 0.453125 -6.34375 L 4.953125 -6.34375 L 4.953125 1.59375 Z M 0.953125 1.09375 L 4.453125 1.09375 L 4.453125 -5.84375 L 0.953125 -5.84375 Z M 0.953125 1.09375 "/>
</symbol>
<symbol overflow="visible" id="glyph0-1">
<path style="stroke:none;" d="M 0.890625 -6.5625 L 2.078125 -6.5625 L 4.984375 -1.078125 L 4.984375 -6.5625 L 5.84375 -6.5625 L 5.84375 0 L 4.65625 0 L 1.75 -5.484375 L 1.75 0 L 0.890625 0 Z M 0.890625 -6.5625 "/>
</symbol>
<symbol overflow="visible" id="glyph0-2">
<path style="stroke:none;" d="M 3.546875 -5.953125 C 2.898438 -5.953125 2.382812 -5.710938 2 -5.234375 C 1.625 -4.753906 1.4375 -4.101562 1.4375 -3.28125 C 1.4375 -2.445312 1.625 -1.789062 2 -1.3125 C 2.382812 -0.832031 2.898438 -0.59375 3.546875 -0.59375 C 4.191406 -0.59375 4.703125 -0.832031 5.078125 -1.3125 C 5.453125 -1.789062 5.640625 -2.445312 5.640625 -3.28125 C 5.640625 -4.101562 5.453125 -4.753906 5.078125 -5.234375 C 4.703125 -5.710938 4.191406 -5.953125 3.546875 -5.953125 Z M 3.546875 -6.6875 C 4.460938 -6.6875 5.195312 -6.375 5.75 -5.75 C 6.300781 -5.132812 6.578125 -4.3125 6.578125 -3.28125 C 6.578125 -2.238281 6.300781 -1.410156 5.75 -0.796875 C 5.195312 -0.179688 4.460938 0.125 3.546875 0.125 C 2.617188 0.125 1.878906 -0.179688 1.328125 -0.796875 C 0.773438 -1.410156 0.5 -2.238281 0.5 -3.28125 C 0.5 -4.3125 0.773438 -5.132812 1.328125 -5.75 C 1.878906 -6.375 2.617188 -6.6875 3.546875 -6.6875 Z M 3.546875 -6.6875 "/>
</symbol>
<symbol overflow="visible" id="glyph0-3">
<path style="stroke:none;" d="M 0.890625 -6.5625 L 1.765625 -6.5625 L 1.765625 -3.875 L 5 -3.875 L 5 -6.5625 L 5.890625 -6.5625 L 5.890625 0 L 5 0 L 5 -3.125 L 1.765625 -3.125 L 1.765625 0 L 0.890625 0 Z M 0.890625 -6.5625 "/>
</symbol>
</g>
</defs>
<g id="surface40269">
<rect x="0" y="0" width="300" height="300" style="fill:rgb(100%,100%,100%);fill-opacity:1;stroke:none;"/>
<path style="fill:none;stroke-width:1.2;stroke-linecap:butt;stroke-linejoin:miter;stroke:rgb(0%,0%,0%);stroke-opacity:1;stroke-miterlimit:10;" d="M 264.75 190.089844 L 254.832031 185.996094 "/>
<path style="fill:none;stroke-width:1.2;stroke-linecap:butt;stroke-linejoin:miter;stroke:rgb(0%,0%,100%);stroke-opacity:1;stroke-miterlimit:10;" d="M 254.832031 185.996094 L 244.917969 181.90625 "/>
<path style="fill:none;stroke-width:1.2;stroke-linecap:butt;stroke-linejoin:miter;stroke:rgb(0%,0%,100%);stroke-opacity:1;stroke-miterlimit:10;" d="M 244.917969 181.90625 L 236.417969 188.449219 "/>
<path style="fill:none;stroke-width:1.2;stroke-linecap:butt;stroke-linejoin:miter;stroke:rgb(0%,0%,0%);stroke-opacity:1;stroke-miterlimit:10;" d="M 236.417969 188.449219 L 227.914062 194.992188 "/>
<path style="fill:none;stroke-width:1.2;stroke-linecap:butt;stroke-linejoin:miter;stroke:rgb(0%,0%,100%);stroke-opacity:1;stroke-miterlimit:10;" d="M 244.917969 181.90625 L 243.5 171.273438 "/>
<path style="fill:none;stroke-width:1.2;stroke-linecap:butt;stroke-linejoin:miter;stroke:rgb(0%,0%,0%);stroke-opacity:1;stroke-miterlimit:10;" d="M 243.5 171.273438 L 242.085938 160.640625 "/>
<path style=" stroke:none;fill-rule:nonzero;fill:rgb(100%,100%,100%);fill-opacity:1;" d="M 241.917969 176.40625 L 248.917969 176.40625 L 248.917969 187.40625 L 241.917969 187.40625 Z M 241.917969 176.40625 "/>
<g style="fill:rgb(0%,0%,100%);fill-opacity:1;">
  <use xlink:href="#glyph0-1" x="241.917969" y="185.069336"/>
</g>
<path style="fill:none;stroke-width:1.2;stroke-linecap:butt;stroke-linejoin:miter;stroke:rgb(0%,0%,0%);stroke-opacity:1;stroke-miterlimit:10;" d="M 243.625 162.640625 L 252.125 156.097656 "/>
<path style="fill:none;stroke-width:1.2;stroke-linecap:butt;stroke-linejoin:miter;stroke:rgb(100%,0%,0%);stroke-opacity:1;stroke-miterlimit:10;" d="M 252.125 156.097656 L 260.625 149.554688 "/>
<path style="fill:none;stroke-width:1.2;stroke-linecap:butt;stroke-linejoin:miter;stroke:rgb(0%,0%,0%);stroke-opacity:1;stroke-miterlimit:10;" d="M 240.546875 158.640625 L 249.046875 152.097656 "/>
<path style="fill:none;stroke-width:1.2;stroke-linecap:butt;stroke-linejoin:miter;stroke:rgb(100%,0%,0%);stroke-opacity:1;stroke-miterlimit:10;" d="M 249.046875 152.097656 L 257.546875 145.554688 "/>
<path style="fill:none;stroke-width:1.2;stroke-linecap:butt;stroke-linejoin:miter;stroke:rgb(0%,0%,0%);stroke-opacity:1;stroke-miterlimit:10;" d="M 242.085938 160.640625 L 222.253906 152.460938 "/>
<path style=" stroke:none;fill-rule:nonzero;fill:rgb(100%,100%,100%);fill-opacity:1;" d="M 255.085938 142.054688 L 263.085938 142.054688 L 263.085938 153.054688 L 255.085938 153.054688 Z M 255.085938 142.054688 "/>
<g style="fill:rgb(100%,0%,0%);fill-opacity:1;">
  <use xlink:href="#glyph0-2" x="255.085938" y="150.717773"/>
</g>
<path style="fill:none;stroke-width:1.2;stroke-linecap:butt;stroke-linejoin:miter;stroke:rgb(0%,0%,0%);stroke-opacity:1;stroke-miterlimit:10;" d="M 222.253906 152.460938 L 205.25 165.546875 "/>
<path style="fill:none;stroke-width:1.2;stroke-linecap:butt;stroke-linejoin:miter;stroke:rgb(0%,0%,0%);stroke-opacity:1;stroke-miterlimit:10;" d="M 217.472656 149.769531 L 203.871094 160.238281 "/>
<path style="fill:none;stroke-width:1.2;stroke-linecap:butt;stroke-linejoin:miter;stroke:rgb(0%,0%,0%);stroke-opacity:1;stroke-miterlimit:10;" d="M 219.421875 131.195312 L 222.253906 152.460938 "/>
<path style="fill:none;stroke-width:1.2;stroke-linecap:butt;stroke-linejoin:miter;stroke:rgb(0%,0%,0%);stroke-opacity:1;stroke-miterlimit:10;" d="M 205.25 165.546875 L 185.417969 157.367188 "/>
<path style="fill:none;stroke-width:1.2;stroke-linecap:butt;stroke-linejoin:miter;stroke:rgb(0%,0%,0%);stroke-opacity:1;stroke-miterlimit:10;" d="M 185.417969 157.367188 L 182.585938 136.101562 "/>
<path style="fill:none;stroke-width:1.2;stroke-linecap:butt;stroke-linejoin:miter;stroke:rgb(0%,0%,0%);stroke-opacity:1;stroke-miterlimit:10;" d="M 190.140625 154.574219 L 187.875 137.558594 "/>
<path style="fill:none;stroke-width:1.2;stroke-linecap:butt;stroke-linejoin:miter;stroke:rgb(0%,0%,0%);stroke-opacity:1;stroke-miterlimit:10;" d="M 182.585938 136.101562 L 199.585938 123.015625 "/>
<path style="fill:none;stroke-width:1.2;stroke-linecap:butt;stroke-linejoin:miter;stroke:rgb(0%,0%,0%);stroke-opacity:1;stroke-miterlimit:10;" d="M 182.585938 136.101562 L 162.753906 127.917969 "/>
<path style="fill:none;stroke-width:1.2;stroke-linecap:butt;stroke-linejoin:miter;stroke:rgb(0%,0%,0%);stroke-opacity:1;stroke-miterlimit:10;" d="M 199.585938 123.015625 L 219.421875 131.195312 "/>
<path style="fill:none;stroke-width:1.2;stroke-linecap:butt;stroke-linejoin:miter;stroke:rgb(0%,0%,0%);stroke-opacity:1;stroke-miterlimit:10;" d="M 199.644531 128.5 L 215.511719 135.042969 "/>
<path style="fill:none;stroke-width:1.2;stroke-linecap:butt;stroke-linejoin:miter;stroke:rgb(0%,0%,0%);stroke-opacity:1;stroke-miterlimit:10;" d="M 162.753906 127.917969 L 161.335938 117.285156 "/>
<path style="fill:none;stroke-width:1.2;stroke-linecap:butt;stroke-linejoin:miter;stroke:rgb(0%,0%,100%);stroke-opacity:1;stroke-miterlimit:10;" d="M 161.335938 117.285156 L 159.921875 106.652344 "/>
<path style="fill:none;stroke-width:1.2;stroke-linecap:butt;stroke-linejoin:miter;stroke:rgb(0%,0%,0%);stroke-opacity:1;stroke-miterlimit:10;" d="M 157.464844 126.457031 L 156.332031 117.953125 "/>
<path style="fill:none;stroke-width:1.2;stroke-linecap:butt;stroke-linejoin:miter;stroke:rgb(0%,0%,100%);stroke-opacity:1;stroke-miterlimit:10;" d="M 156.332031 117.953125 L 155.199219 109.445312 "/>
<path style="fill:none;stroke-width:1.2;stroke-linecap:butt;stroke-linejoin:miter;stroke:rgb(0%,0%,100%);stroke-opacity:1;stroke-miterlimit:10;" d="M 145.753906 141.003906 L 154.253906 134.460938 "/>
<path style="fill:none;stroke-width:1.2;stroke-linecap:butt;stroke-linejoin:miter;stroke:rgb(0%,0%,0%);stroke-opacity:1;stroke-miterlimit:10;" d="M 154.253906 134.460938 L 162.753906 127.917969 "/>
<path style="fill:none;stroke-width:1.2;stroke-linecap:butt;stroke-linejoin:miter;stroke:rgb(0%,0%,100%);stroke-opacity:1;stroke-miterlimit:10;" d="M 159.921875 106.652344 L 150.003906 102.5625 "/>
<path style="fill:none;stroke-width:1.2;stroke-linecap:butt;stroke-linejoin:miter;stroke:rgb(0%,0%,0%);stroke-opacity:1;stroke-miterlimit:10;" d="M 150.003906 102.5625 L 140.089844 98.472656 "/>
<path style=" stroke:none;fill-rule:nonzero;fill:rgb(100%,100%,100%);fill-opacity:1;" d="M 156.921875 101.152344 L 163.921875 101.152344 L 163.921875 112.152344 L 156.921875 112.152344 Z M 156.921875 101.152344 "/>
<g style="fill:rgb(0%,0%,100%);fill-opacity:1;">
  <use xlink:href="#glyph0-1" x="156.921875" y="109.81543"/>
</g>
<path style="fill:none;stroke-width:1.2;stroke-linecap:butt;stroke-linejoin:miter;stroke:rgb(0%,0%,0%);stroke-opacity:1;stroke-miterlimit:10;" d="M 140.089844 98.472656 L 123.085938 111.558594 "/>
<path style="fill:none;stroke-width:1.2;stroke-linecap:butt;stroke-linejoin:miter;stroke:rgb(0%,0%,0%);stroke-opacity:1;stroke-miterlimit:10;" d="M 141.46875 103.78125 L 127.867188 114.25 "/>
<path style="fill:none;stroke-width:1.2;stroke-linecap:butt;stroke-linejoin:miter;stroke:rgb(0%,0%,0%);stroke-opacity:1;stroke-miterlimit:10;" d="M 123.085938 111.558594 L 125.917969 132.824219 "/>
<path style="fill:none;stroke-width:1.2;stroke-linecap:butt;stroke-linejoin:miter;stroke:rgb(0%,0%,0%);stroke-opacity:1;stroke-miterlimit:10;" d="M 125.917969 132.824219 L 135.835938 136.914062 "/>
<path style="fill:none;stroke-width:1.2;stroke-linecap:butt;stroke-linejoin:miter;stroke:rgb(0%,0%,100%);stroke-opacity:1;stroke-miterlimit:10;" d="M 135.835938 136.914062 L 145.753906 141.003906 "/>
<path style="fill:none;stroke-width:1.2;stroke-linecap:butt;stroke-linejoin:miter;stroke:rgb(0%,0%,0%);stroke-opacity:1;stroke-miterlimit:10;" d="M 129.828125 128.976562 L 137.761719 132.246094 "/>
<path style="fill:none;stroke-width:1.2;stroke-linecap:butt;stroke-linejoin:miter;stroke:rgb(0%,0%,100%);stroke-opacity:1;stroke-miterlimit:10;" d="M 137.761719 132.246094 L 145.695312 135.519531 "/>
<path style="fill:none;stroke-width:1.2;stroke-linecap:butt;stroke-linejoin:miter;stroke:rgb(0%,0%,0%);stroke-opacity:1;stroke-miterlimit:10;" d="M 125.917969 132.824219 L 117.417969 139.367188 "/>
<path style="fill:none;stroke-width:1.2;stroke-linecap:butt;stroke-linejoin:miter;stroke:rgb(0%,0%,100%);stroke-opacity:1;stroke-miterlimit:10;" d="M 117.417969 139.367188 L 108.917969 145.910156 "/>
<path style=" stroke:none;fill-rule:nonzero;fill:rgb(100%,100%,100%);fill-opacity:1;" d="M 142.753906 135.503906 L 149.753906 135.503906 L 149.753906 146.503906 L 142.753906 146.503906 Z M 142.753906 135.503906 "/>
<g style="fill:rgb(0%,0%,100%);fill-opacity:1;">
  <use xlink:href="#glyph0-1" x="142.753906" y="144.166992"/>
</g>
<path style="fill:none;stroke-width:1.2;stroke-linecap:butt;stroke-linejoin:miter;stroke:rgb(0%,0%,100%);stroke-opacity:1;stroke-miterlimit:10;" d="M 108.917969 145.910156 L 99 141.820312 "/>
<path style="fill:none;stroke-width:1.2;stroke-linecap:butt;stroke-linejoin:miter;stroke:rgb(0%,0%,0%);stroke-opacity:1;stroke-miterlimit:10;" d="M 99 141.820312 L 89.085938 137.730469 "/>
<path style=" stroke:none;fill-rule:nonzero;fill:rgb(100%,100%,100%);fill-opacity:1;" d="M 101.917969 140.410156 L 115.917969 140.410156 L 115.917969 151.410156 L 101.917969 151.410156 Z M 101.917969 140.410156 "/>
<g style="fill:rgb(0%,0%,100%);fill-opacity:1;">
  <use xlink:href="#glyph0-1" x="101.917969" y="149.073242"/>
  <use xlink:href="#glyph0-3" x="108.895508" y="149.073242"/>
</g>
<path style="fill:none;stroke-width:1.2;stroke-linecap:butt;stroke-linejoin:miter;stroke:rgb(0%,0%,0%);stroke-opacity:1;stroke-miterlimit:10;" d="M 89.085938 137.730469 L 72.085938 150.816406 "/>
<path style="fill:none;stroke-width:1.2;stroke-linecap:butt;stroke-linejoin:miter;stroke:rgb(0%,0%,0%);stroke-opacity:1;stroke-miterlimit:10;" d="M 72.085938 150.816406 L 52.25 142.632812 "/>
<path style="fill:none;stroke-width:1.2;stroke-linecap:butt;stroke-linejoin:miter;stroke:rgb(0%,0%,0%);stroke-opacity:1;stroke-miterlimit:10;" d="M 68.175781 154.664062 L 52.308594 148.117188 "/>
<path style="fill:none;stroke-width:1.2;stroke-linecap:butt;stroke-linejoin:miter;stroke:rgb(0%,0%,0%);stroke-opacity:1;stroke-miterlimit:10;" d="M 74.914062 172.082031 L 72.085938 150.816406 "/>
<path style="fill:none;stroke-width:1.2;stroke-linecap:butt;stroke-linejoin:miter;stroke:rgb(0%,0%,0%);stroke-opacity:1;stroke-miterlimit:10;" d="M 52.25 142.632812 L 35.25 155.71875 "/>
<path style="fill:none;stroke-width:1.2;stroke-linecap:butt;stroke-linejoin:miter;stroke:rgb(0%,0%,0%);stroke-opacity:1;stroke-miterlimit:10;" d="M 35.25 155.71875 L 38.082031 176.984375 "/>
<path style="fill:none;stroke-width:1.2;stroke-linecap:butt;stroke-linejoin:miter;stroke:rgb(0%,0%,0%);stroke-opacity:1;stroke-miterlimit:10;" d="M 40.535156 157.179688 L 42.800781 174.191406 "/>
<path style="fill:none;stroke-width:1.2;stroke-linecap:butt;stroke-linejoin:miter;stroke:rgb(0%,0%,0%);stroke-opacity:1;stroke-miterlimit:10;" d="M 38.082031 176.984375 L 57.914062 185.167969 "/>
<path style="fill:none;stroke-width:1.2;stroke-linecap:butt;stroke-linejoin:miter;stroke:rgb(0%,0%,0%);stroke-opacity:1;stroke-miterlimit:10;" d="M 57.914062 185.167969 L 74.914062 172.082031 "/>
<path style="fill:none;stroke-width:1.2;stroke-linecap:butt;stroke-linejoin:miter;stroke:rgb(0%,0%,0%);stroke-opacity:1;stroke-miterlimit:10;" d="M 56.535156 179.859375 L 70.136719 169.390625 "/>
<path style="fill:none;stroke-width:1.2;stroke-linecap:butt;stroke-linejoin:miter;stroke:rgb(0%,0%,0%);stroke-opacity:1;stroke-miterlimit:10;" d="M 74.914062 172.082031 L 84.832031 176.171875 "/>
<path style="fill:none;stroke-width:1.2;stroke-linecap:butt;stroke-linejoin:miter;stroke:rgb(100%,0%,0%);stroke-opacity:1;stroke-miterlimit:10;" d="M 84.832031 176.171875 L 94.75 180.261719 "/>
<path style="fill:none;stroke-width:1.2;stroke-linecap:butt;stroke-linejoin:miter;stroke:rgb(100%,0%,0%);stroke-opacity:1;stroke-miterlimit:10;" d="M 94.75 180.261719 L 96.164062 190.894531 "/>
<path style="fill:none;stroke-width:1.2;stroke-linecap:butt;stroke-linejoin:miter;stroke:rgb(0%,0%,0%);stroke-opacity:1;stroke-miterlimit:10;" d="M 96.164062 190.894531 L 97.582031 201.527344 "/>
<path style=" stroke:none;fill-rule:nonzero;fill:rgb(100%,100%,100%);fill-opacity:1;" d="M 90.75 174.761719 L 98.75 174.761719 L 98.75 185.761719 L 90.75 185.761719 Z M 90.75 174.761719 "/>
<g style="fill:rgb(100%,0%,0%);fill-opacity:1;">
  <use xlink:href="#glyph0-2" x="90.75" y="183.424805"/>
</g>
</g>
</svg>

<svg xmlns="http://www.w3.org/2000/svg" xmlns:xlink="http://www.w3.org/1999/xlink" width="300pt" height="300pt" viewBox="0 0 300 300"><defs><symbol overflow="visible"><path d="M.453 1.594v-7.938h4.5v7.938zm.5-.5h3.5v-6.938h-3.5zm0 0"/></symbol><symbol overflow="visible" id="a"><path d="M.89-6.563H2.08l2.906 5.485v-5.484h.86V0H4.656L1.75-5.484V0H.89zm0 0"/></symbol><symbol overflow="visible" id="b"><path d="M3.547-5.953c-.65 0-1.164.242-1.547.72-.375.48-.563 1.13-.563 1.952 0 .835.188 1.49.563 1.967.383.48.898.72 1.547.72.644 0 1.156-.24 1.53-.72.376-.476.564-1.132.564-1.968 0-.822-.187-1.474-.562-1.954-.375-.477-.887-.72-1.53-.72zm0-.734c.914 0 1.648.312 2.203.937.55.617.828 1.438.828 2.47 0 1.042-.277 1.87-.828 2.483-.555.617-1.29.922-2.203.922-.93 0-1.668-.305-2.22-.922C.774-1.41.5-2.237.5-3.28c0-1.033.273-1.853.828-2.47.55-.625 1.29-.938 2.22-.938zm0 0"/></symbol><symbol overflow="visible" id="c"><path d="M.89-6.563h.876v2.688H5v-2.688h.89V0H5v-3.125H1.766V0H.89zm0 0"/></symbol></defs><g><path fill="#fff" d="M0 0h300v300H0z"/><path d="M264.75 190.09l-9.918-4.094" stroke-width="1.2" stroke="#000" stroke-miterlimit="10" fill="none"/><path d="M254.832 185.996l-9.914-4.09M244.918 181.906l-8.5 6.543" stroke-width="1.2" stroke="#00f" stroke-miterlimit="10" fill="none"/><path d="M236.418 188.45l-8.504 6.542" stroke-width="1.2" stroke="#000" stroke-miterlimit="10" fill="none"/><path d="M244.918 181.906l-1.418-10.633" stroke-width="1.2" stroke="#00f" stroke-miterlimit="10" fill="none"/><path d="M243.5 171.273l-1.414-10.632" stroke-width="1.2" stroke="#000" stroke-miterlimit="10" fill="none"/><path d="M241.918 176.406h7v11h-7zm0 0" fill="#fff"/><use xlink:href="#a" x="241.918" y="185.069" fill="#00f"/><path d="M243.625 162.64l8.5-6.542" stroke-width="1.2" stroke="#000" stroke-miterlimit="10" fill="none"/><path d="M252.125 156.098l8.5-6.543" stroke-width="1.2" stroke="#f00" stroke-miterlimit="10" fill="none"/><path d="M240.547 158.64l8.5-6.542" stroke-width="1.2" stroke="#000" stroke-miterlimit="10" fill="none"/><path d="M249.047 152.098l8.5-6.543" stroke-width="1.2" stroke="#f00" stroke-miterlimit="10" fill="none"/><path d="M242.086 160.64l-19.832-8.18" stroke-width="1.2" stroke="#000" stroke-miterlimit="10" fill="none"/><path d="M255.086 142.055h8v11h-8zm0 0" fill="#fff"/><use xlink:href="#b" x="255.086" y="150.718" fill="#f00"/><path d="M222.254 152.46l-17.004 13.087M217.473 149.77l-13.602 10.468M219.422 131.195l2.832 21.266M205.25 165.547l-19.832-8.18M185.418 157.367l-2.832-21.265M190.14 154.574l-2.265-17.015M182.586 136.102l17-13.086M182.586 136.102l-19.832-8.184M199.586 123.016l19.836 8.18M199.645 128.5l15.867 6.543M162.754 127.918l-1.418-10.633" stroke-width="1.2" stroke="#000" stroke-miterlimit="10" fill="none"/><path d="M161.336 117.285l-1.414-10.633" stroke-width="1.2" stroke="#00f" stroke-miterlimit="10" fill="none"/><path d="M157.465 126.457l-1.133-8.504" stroke-width="1.2" stroke="#000" stroke-miterlimit="10" fill="none"/><path d="M156.332 117.953l-1.133-8.508M145.754 141.004l8.5-6.543" stroke-width="1.2" stroke="#00f" stroke-miterlimit="10" fill="none"/><path d="M154.254 134.46l8.5-6.542" stroke-width="1.2" stroke="#000" stroke-miterlimit="10" fill="none"/><path d="M159.922 106.652l-9.918-4.09" stroke-width="1.2" stroke="#00f" stroke-miterlimit="10" fill="none"/><path d="M150.004 102.563l-9.914-4.09" stroke-width="1.2" stroke="#000" stroke-miterlimit="10" fill="none"/><path d="M156.922 101.152h7v11h-7zm0 0" fill="#fff"/><use xlink:href="#a" x="156.922" y="109.815" fill="#00f"/><path d="M140.09 98.473l-17.004 13.086M141.47 103.78l-13.603 10.47M123.086 111.56l2.832 21.264M125.918 132.824l9.918 4.09" stroke-width="1.2" stroke="#000" stroke-miterlimit="10" fill="none"/><path d="M135.836 136.914l9.918 4.09" stroke-width="1.2" stroke="#00f" stroke-miterlimit="10" fill="none"/><path d="M129.828 128.977l7.934 3.27" stroke-width="1.2" stroke="#000" stroke-miterlimit="10" fill="none"/><path d="M137.762 132.246l7.933 3.274" stroke-width="1.2" stroke="#00f" stroke-miterlimit="10" fill="none"/><path d="M125.918 132.824l-8.5 6.543" stroke-width="1.2" stroke="#000" stroke-miterlimit="10" fill="none"/><path d="M117.418 139.367l-8.5 6.543" stroke-width="1.2" stroke="#00f" stroke-miterlimit="10" fill="none"/><path d="M142.754 135.504h7v11h-7zm0 0" fill="#fff"/><use xlink:href="#a" x="142.754" y="144.167" fill="#00f"/><path d="M108.918 145.91L99 141.82" stroke-width="1.2" stroke="#00f" stroke-miterlimit="10" fill="none"/><path d="M99 141.82l-9.914-4.09" stroke-width="1.2" stroke="#000" stroke-miterlimit="10" fill="none"/><path d="M101.918 140.41h14v11h-14zm0 0" fill="#fff"/><g fill="#00f"><use xlink:href="#a" x="101.918" y="149.073"/><use xlink:href="#c" x="108.896" y="149.073"/></g><path d="M89.086 137.73l-17 13.086M72.086 150.816l-19.836-8.183M68.176 154.664l-15.867-6.547M74.914 172.082l-2.828-21.266M52.25 142.633l-17 13.086M35.25 155.72l2.832 21.264M40.535 157.18l2.266 17.01M38.082 176.984l19.832 8.184M57.914 185.168l17-13.086M56.535 179.86l13.602-10.47M74.914 172.082l9.918 4.09" stroke-width="1.2" stroke="#000" stroke-miterlimit="10" fill="none"/><path d="M84.832 176.172l9.918 4.09M94.75 180.262l1.414 10.633" stroke-width="1.2" stroke="#f00" stroke-miterlimit="10" fill="none"/><path d="M96.164 190.895l1.418 10.632" stroke-width="1.2" stroke="#000" stroke-miterlimit="10" fill="none"/><path d="M90.75 174.762h8v11h-8zm0 0" fill="#fff"/><use xlink:href="#b" x="90.75" y="183.425" fill="#f00"/></g></svg>
